modules/hawcons-filled/icons/icon-30-book.svg

<?xml version="1.0" encoding="UTF-8" standalone="no"?>
<svg width="32px" height="32px" viewBox="0 0 32 32" version="1.1" xmlns="http://www.w3.org/2000/svg" xmlns:xlink="http://www.w3.org/1999/xlink" xmlns:sketch="http://www.bohemiancoding.com/sketch/ns">
    <!-- Generator: Sketch 3.0.3 (7891) - http://www.bohemiancoding.com/sketch -->
    <title>icon 30 book</title>
    <desc>Created with Sketch.</desc>
    <defs></defs>
    <g id="Page-1" stroke="none" stroke-width="1" fill="none" fill-rule="evenodd" sketch:type="MSPage">
        <g id="icon-30-book" sketch:type="MSArtboardGroup" fill="#929292">
            <path d="M8.99420208,29 C7.34331197,29 6,27.6570978 6,26.0005439 L6,6.5 C6,5.10966206 7.115964,4 8.49257535,4 L26,4 L26,5 L25.4953156,5 C24.6771088,5 24,5.67157288 24,6.5 C24,7.33420277 24.6694756,8 25.4953156,8 L26,8 L26,29 L11,29 L11,8 L23.5,8 C23.5,8 23,7.21048453 23,6.47355449 C23,5.73662445 23.5,5 23.5,5 L8.49336625,5 C7.66860284,5 7,5.66579723 7,6.5 C7,7.32842712 7.66725546,8 8.49336625,8 L10,8 L10,29 L8.99420208,29 Z" id="book" sketch:type="MSShapeGroup"></path>
        </g>
    </g>
</svg>

<svg width="32" height="32" xmlns="http://www.w3.org/2000/svg"><path d="M8.994 29A2.999 2.999 0 0 1 6 26V6.5A2.49 2.49 0 0 1 8.493 4H26v1h-.505C24.677 5 24 5.672 24 6.5c0 .834.67 1.5 1.495 1.5H26v21H11V8h12.5s-.5-.79-.5-1.526c0-.737.5-1.474.5-1.474H8.493C7.67 5 7 5.666 7 6.5 7 7.328 7.667 8 8.493 8H10v21H8.994z" fill="#929292" fill-rule="evenodd"/></svg>
